X:117
T:Steirer, Privatarchiv Hofer, Sammelgut Khals Leopold 23/20
R:Steirer
C:traditionell
B:"Hundert Steirer aus dem Ausseerland", compiled by F .Hofer, publisher Steirisches Volksliedwerk, Graz, undated,
N:im buch in D, nr. 1
S:Privatarchiv Hofer, Sammelgut Khals Leopold 23/20, Aussee, 1883 -1968
A:Aussee, Salzkammergut
M:3/4
L:1/8
K:G
V:1
%violino 1mo
de |\
d2 gdbd | c'dfdc'd | d2 fdc'd | gbfged |\
d2 gdbd | c'dfdc'd | d2 fdc'd | g4 :|
V:2
%violino 2do
Bc |\
B2 dB gd | ac dc ac | c2 dc ac | Bg de cB |\
B2 dB gd | acdc ac | c2 dc ac | B4 :|
